X:1
T:II.
T:Six short Preludes and Postludes, Op. 101
T:First Set. II. 
T:Charles Villiers Stanford
%%score { ( 1 2 5 ) | ( 3 4 ) } 6
L:1/8
Q:1/4=100
M:4/4
K:Bb
V:1 treble nm="Manual"
V:2 treble 
V:5 treble 
V:3 bass 
V:4 bass 
V:6 bass nm="Pedal"
V:1
"^Allegro non troppo e pesante"!f! (.[DG]2 .[D^F]2) z [DG]AB | [Ec]2 [DFd]2 [CFc]4 | %2
 (.[DG]2 .[D^F]2) z [DG][FA][GB] | c2 d2 [DG]4 | [EG]2 [E^F]2 z [DG][CEA][B,EB] | %5
 [EGc]2 [Gd]2 [FAc]2 z2 |"^Gt." [FAc]2 [GAcg]2 z ^fad | e4- eceA | B4- BGB^C | %9
 D2 [CE]2 [CA]2 [CGc]2 | [Ece]2 [Ae^f]2 [Gdg]2 [Bdb]2 | %11
 [=e=e']2 (e'/^d'/e'/b/ g/ ^d/e/) (g/ b/a/b/g/ | %12
 =e/ A/B/) (e/ g/^f/g/e/ B/ ^F/G/ A/ B/) (^D/=E/ F/ | G/) (C/^C/ ^D/ =E/) x/ x x4 | %14
 z4!mf! (.[CEG]2 .[A,C^F]2) | z [B,DG][CEA][CEB] (.[CEG]2 .[A,C^F]2) | z4 (.[DEB]2 .[CEA]2) | %17
 z [EGB][EGc][EGd] (.[EGB]2 .[EGA]2) | z4 (.[E_Ac]2 .[DFA=B]2) | %19
 z [E_Ac][FA=Bd][EAce] (.[EAc]2 .[FAB]2) | z2 [_A,C]2 z2 [CE]2 | z2 [E_A]2 z2 [EAc]2 | %22
 z2!f! [E_Ae-]2 [^Fe]d/c/ B/=A/G/F/ | (.[DG]2 .[D^F]2) z [DG]AB | [Ec]2 [DFd]2 [CFc]4 | %25
 [F_Ac]2 [DG=B]2 z [EGc][FBd][Gce] | [_Adf]2 [G-_dg]2 c4 | [E_Gc]2 [Gc_g]2 z f_a_d | %28
 [F_Ad]2 [Ad_a]2 z gbe | [GB=e]2 b3 ac'b | _agba feag | _gfef ed=g^f | =fede ^cdGA | %33
 [DGB] z z2 z ^FGA | [DGB] z z2 z [^FA][GB][Ac] | [GBd] z z2 z ^fga | [Bb]2 [c=egc']2 f3 g | %37
 [GBg]2 b/a/b/g/ d/ x/ x/ d/ g/^f/g/d/ | =B/ x/ x/ B/ d/^c/d/B/ F/ x/ x/ F/ _A/G/A/F/ | %39
 E/ x/ x/ E/ G/^F/G/E/ C/ x/ x/ C/ E/D/E/C/ | z4 z/ C/E/^F/ (6:4:6A/c/e/^f/a/c'/ | %41
 e'2 z2!<(!"_couple Sw." ^f4- | f7 g!<)! | !fermata![G=Bdg]8 |] %44
V:2
 x6 =F2 | x8 | x8 | AG ^F2 x4 | x8 | x2 D=E x2 x2 | x4 x [Ac]2 [^FA] | [G-d]2 [Gc]2 E4 | %8
 [DA]2 [DG]2 [B,=E]3 x | x8 | x8 | x8 | x8 | x5/2 x/ x x2 x2 | x8 | x8 | x8 | x8 | x8 | x8 | x8 | %21
 x8 | x8 | x6 =F2 | x8 | x8 | x4 G=EGF | x4 x [_A_d]2 [FA] | x4 x [Be]2 [GB] | x2 g4 x2 | %30
 [B_d]2 [cf]2 [_Ac]2 [ce]2- | [ce]2 [_Gc]2 [FB]2 [=G-d]2 | [Gc]2 [GB]4 ^C2 | x x x2 x ^C2 [C^F] | %34
 x8 | x x x2 x c3 | x2 x2 [c_e]2 [Bd][Ac] | x2 x2 x/ A/B/ x/ x2 | x/ =E/F/ x/ x2 x/ ^C/D/ x/ x2 | %39
 x/ =B,/C/ x/ x2 x/ ^F,/G,/ x/ x2 | x8 | x2 x2 [Ac]4 | [=Bd]4 [ce]4 | x8 |] %44
V:3
"^Gt.""^" (.B,2 .A,2) z B,CB, | G,A, B,4 A,2 | (.B,2 .A,2) z G,CB, | A,3 C (C2 B,2) | %4
"^Full Sw.\n""^" [B,C]2 [A,C]2 z [G,B,][^F,A,]G, | [E,G,C]2 G,2 [F,C]2 [=E,B,_D]2 | %6
 [F,A,C]2"^Gt.""^" [_E,A,C]2 z [A,C]2 A, | D2 C2 [E,A,C]4 | [D,B,]4 x4 | A,2 A,2 A,2 [G,A,]2 | %10
 [^F,A,]2 [F,A,E]2 [G,B,D]2 [D,G,B,D]2 | [=E,G,B,=E]2 z2 z4 | z8 | %13
 x2 x/ (^F,/G,/ A,/ B,/) (^D,/=E,/ ^F,/ G,/) (A,,/B,,/G,,/ | D,,) z z2 (.[C,E,G,]2 .[A,,C,^F,]2) | %15
 z [B,,D,G,][C,E,A,][C,E,B,] (.[C,E,G,]2 .[A,,C,^F,]2) | z4"^cresc." (.[D,E,B,]2 .[C,E,A,]2) | %17
 z [E,G,B,][E,G,C][E,G,D] (.[D,E,G,B,]2 .[C,E,G,A,]2) | z4 (.[E,_A,C]2 .[D,F,A,=B,]2) | %19
 z [E,_A,C][F,A,=B,D][E,A,CE] (.[E,A,C]2 .[F,A,B,]2) | z2 [C,E,]2 z2 [C,E,_A,]2 | %21
 z2 [E,_A,]2 z2 [E,=A,C]2 | z2 [E,_A,-C-]2 [^F,A,C]D/C/ B,/A,/G,/F,/ | (.B,2 .A,2) z B,CB, | %24
 G,A, B,2- B,A,G,A, | [F,_A,C]2 [D,G,=B,]2 z [E,G,C][F,B,D][G,CE] | [_A,DF]2 [G,-_D]2 C4 | %27
 [E,_G,C]2 [G,CE]2 z [F,_A,_D]2 [F,A,D] | [F,_A,D]2 [A,DF]2 z [G,B,E]2 [G,B,E] | %29
 [G,B,=E]2"^Full Gt.""^" [G,B,G]6- | [G,B,G]2 [F,CF]2 [_A,C]2 [G,C-E-]2 | [CE]2 EF ED x2 | %32
 FEDE ^CD x2 | [D,G,B,] z z2 z A,B,G, | [D,G,B,] z z2 z [^F,A,][G,B,][A,C] | [G,B,D] z z2 z E3 | %36
 [G,D]2 [=E,G,C=E]2 [C_E]2 [B,D][A,C] | [G,B,]2 z2 z4 | z8 | z8 | A,/ x/ x x2 x/ z/ z z2 | %41
 z4 ([E,E]4 | [D,D]4 [C,C]4) | !fermata![D,G,=B,D]8 |] %44
V:4
 x8 | x8 | x8 | x8 | x8 | x2 D,=E, x4 | x8 | [E,G,]4 x4 | A,2 G,2 [=E,G,]3 B, | x8 | x8 | x8 | x8 | %13
 x8 | x8 | x8 | x8 | x8 | x8 | x8 | x8 | x8 | x8 | x8 | x8 | x8 | x4 G,=E,G,F, | x8 | x8 | x8 | %30
 x8 | x2 [_G,C]2 [F,B,]2 [=G,-D]2 | [G,C]2 [G,B,]4 [E,G,]2 | x x x2 x E,2 E, | x8 | %35
 x x x2 x A,G,^F, | x8 | x8 | x8 | x8 | x/ ^F,/E,/C,/ A,,/C,/E,/F,/ A,/ x/ x x2 | x8 | x8 | x8 |] %44
V:5
 x8 | x8 | x8 | x8 | x8 | x8 | x8 | x8 | x8 | x8 | x8 | x8 | x8 | x8 | x8 | x8 | x8 | x8 | x8 | %19
 x8 | x8 | x8 | x8 | x8 | x8 | x8 | x8 | x8 | x8 | x2 _e2 d2 _d2 | x8 | x8 | x8 | x8 | x8 | x8 | %36
 x8 | x8 | x8 | x8 | x8 | x8 | x8 | x8 |] %44
V:6
 (.G,2 .D,2) z G,F,D, | C,2 B,,2 F,4 | (.G,2 .D,2) z B,,A,,G,, | F,,E,, D,,2 G,,4 | z4 D,2 E,2 | %5
 z D,C,B,, A,,2 G,,2 | A,,2 z2 A,,2 D,,2 | z E,,C,,G,, ^F,,4- | F,,B,,G,,D, ^C,3 G,- | %9
 G, ^F,2 =F,2 =E,2 _E,- | E, D,2 C,2 B,,2 G,, | ^C,,2 z2 z4 | z8 | z8 | %14
!mf! (.D,,2 .C,,2) z C,,D,,E,, | (.D,,2 .C,,2) z C,,D,,E,, | (.D,,2 .C,,2) z"^cresc." C,,D,,E,, | %17
 (.D,,2 .C,,2) z C,,D,,E,, | (.D,,2 .C,,2) z C,,D,,E,, | (.D,,2 .C,,2) z C,,D,,E,, | %20
 D,,C,,E,,D,, F,,E,,_A,,G,, | B,,_A,,_D,C, F,E,B,_A, |!f! C2 C,2 D,2 z2 | z B,,D,C, B,,G,F,D, | %24
 C,F,B,,B, F,A,C,F, | z F,G,F, G,E,G,C, | B,B,,E,E,, _A,,4- | A,,2 z2 _D,,2 _A,2 | z4 E,,2 B,2 | %29
 z2!ff! ^C,,2 D,,2 _E,,2 | =E,,2 F,,2 ^F,,2 G,,2 | _A,,2 =A,,2 B,,2 =B,,2 | C,2 ^C,2 D,2 E,2 | %33
 z ^C,D,D,, E,4 | z ^C,D,D,, E,4 | z ^C,D,D,, E,4 | D,2 C,2 D,2 D,,2 | G,,8- | G,,8- | G,,8- | %40
 G,,8- | G,,8- | G,,8- | !fermata!G,,8 |] %44

